// (c) 2018 Harlepengren
// http://harlepengren.com
//
// Licensed under Apache 2.0
// This software is provided AS IS WITH NO EXPRESS OR IMPLIED WARRANTY OF ANY KIND.

shader colorChange(float inputSeed=0, float saturation=1, float value=1, output color outColor=1) {
    float hue = inputSeed/250;
    
    outColor = color("hsv",hue,saturation,value);
}
