// (c) 2018 Harlepengren
// http://harlepengren.com
//
// Licensed under Apache 2.0
// This software is provided AS IS WITH NO EXPRESS OR IMPLIED WARRANTY OF ANY KIND.

volume inside(float  radius=1.0, float seed=0.0, float scale=1.0, color inputColor=1, output closure color BSDF=0) {
    float currentNoise = noise("perlin",P,seed);
    
    float currentRadius = length(P)+currentNoise*scale;
    
    if(currentRadius < radius) {
        BSDF = henyey_greenstein(0)*50*inputColor;
    }
}
